X:1
T:Tappan, CM
T:George Kingsley, 1838
T:Tappan, CM
T:Public Domain
C:George Kingsley, 1838
Z:Public Domain
%%score ( 1 2 ) ( 3 4 )
L:1/8
M:3/2
K:G
V:1 treble 
V:2 treble 
V:3 bass 
V:4 bass 
V:1
 D2 D2 D2 | [DB]6 [CA]2 [B,G]2 [CE]2 | [B,D]6 D2 D2 D2 | ([Dc]6 [GB]2) ([FA]2 [EG]2) | %4
 [FA]6 D2 D2 D2 | [DB]6 [B,G]2 (AG) [CE]2 | [B,D]6 [GB]2 [Fc]2 [Gd]2 | [Ge]6 [Gd]2 [GB]2 [DG]2 | %8
 [DA]6 [DB]2 [CA]2 [DG]2 | ([CE]6 [EA]2) (G2 F2) | [DG]6 |] %11
V:2
 D2 D2 D2 | x12 | x12 | x12 | x12 | x8 C2 x2 | x12 | x12 | x12 | x8 D4 | x6 |] %11
V:3
 D,2 D,2 D,2 | [G,,G,]6 [G,,G,]2 [G,,G,]2 [G,,G,]2 | [G,,G,]6 [G,B,]2 [G,B,]2 [G,B,]2 | %3
 (A,6 B,2) (D2 B,2) | [D,A,]6 D,2 D,2 D,2 | [G,,G,]6 [G,,G,]2 [C,E,]2 [E,G,]2 | %6
 G,6 [G,D]2 [A,D]2 [B,D]2 | C6 [B,D]2 [G,D]2 [B,,G,]2 | [D,F,]6 [G,,G,]2 [A,,F,]2 [B,,G,]2 | %9
 (G,6 C2) (B,2 A,2) | [G,,B,]6 |] %11
V:4
 D,2 D,2 D,2 | x12 | x12 | D,8 D,4 | x12 | x12 | G,6 x6 | x12 | x12 | C,8 D,4 | x6 |] %11

